X:4552
T:Duncan's Boots
M:4/4
L:1/8
Q:230
C:Stephen P. McNally
R:reel
N:Written for Duncan and Mia Scott (no relation). At Ceolas music school
N:Mia was stepdancing wearing Duncans size 12 clodhopper boots
H:Written on the shores of Loch Etive, summer 1996
K:D
|:dffg fedf|Bdfe dA~A2|dffg feda|edef eABd|!
gffg fedf|Bdfe dA~A2|Bdaf edef|geBcd4:|!
|:afdc dafd|Bdfe dA~A2|afdc dafd|edef egfg|!
afdc dafd|Bdfe dA~A2|Bdaf edef|geBcd4:|!
|:df~f2dfgf|Bdfe dA~A2|df~f2dfaf|edef gB~B2|!
df~f2dfgf|Bdfe dA~A2|Bdaf edef|geBcd4:|!
|:af~f2dcBA|Bdfe dA~A2|af~f2ABdf|edef gB~B2|!
af~f2dcBA|Bdfe dA~A2|Bdaf edef|geBcd4:|!
